X:217
T:Polska fr{\aa}n Brotorp
R:sl\"angpolska
H:efter Anders Persson, Brotorp, Hallingeberg, Tjust
A:Sm{\aa}land
D:Pelle Bj\"ornlert: Fors
Z:id:hn-sp-217
M:3/4
L:1/16
K:Dm
A2d2 fe^ce e2d2 | AGAB cBAG B2A2 | F2AF E2GE D^CDE |
FED^C DEFG A4 | A2d2 fe^ce e2d2 | AGAB cBAG B2A2 | F2AF E2GE D^CDE |
FED^C C2D2 D4 :||: f2fa fcfa bagf | egeg eceg agfe |
f2fa fcfa bagf | egeg eceg agfe | d^cde fefg a2d2 | f2ed ^c2d2 d4 :|
<end>
<start>
